!!!!SEGMENT: pl-wn--sd-xvi-o-250_anonim--kancjonal-zamoyskich-piesn-o-czworakim-przyjsciu-panskim-na-swiat-wesele-spiewajmy-boga-ojca-chwalmy.krn
!!!cenid: 15xx:808
!!!COM: Anonim
!!!COM-rismID: pe30004985
!!!CDT:
!!!CNT:
!!!GTL: Kancjonał Zamoyskich
!!!OTL: Pieśń o czworakim przyjściu pańskim na świat/Wesele śpiewajmy Boga Ojca chwalmy
!!!PDT: 1558
!!!AGN:
!!!SMS-siglum: PL-Wn
!!!SMS-shelfmark: SD XVI.O.250
!!!SMS-shelfwork: G
!!!SMS-variant:
!!!SMS-altvar:
!!!NIFC-rismSourceID: 990072136
!!!NIFC-rismChildID: 990072136
!!!NIFC-islandoraID: none
!!!URL-pdf-islandora:
!!!URL-scan: https://polona.pl/item/piesn-o-czworakim-przisciu-panskim-na-swiath-iako-aue-hierarchia,MTE3MjI5Nw/3 @EN{Scan on Polona} @PL{Skany w portalu Polona}
!!!IIIF: https://polona.pl/iiif/item/MTE3MjI5Nw/manifest.json
!!!ONB-nifc: UWAGA: proszę zapisywać tylko teksty występujące bezpośrednio pod nutami
!!!AIN: 1 alto 1 bass 1 soprn 1 tenor
!!!key: F
**kern	**text	**mod-text	**kern	**text	**mod-text	**kern	**text	**mod-text	**kern	**text	**mod-text
*part4	*part4	*part4	*part3	*part3	*part3	*part2	*part2	*part2	*part1	*part1	*part1
*staff4	*staff4	*staff4	*staff3	*staff3	*staff3	*staff2	*staff2	*staff2	*staff1	*staff1	*staff1
*ICvox	*	*	*ICvox	*	*	*ICvox	*	*	*ICvox	*	*
*Ibass	*	*	*Itenor	*	*	*Ialto	*	*	*Isoprn	*	*
*I"BASS.	*	*	*I"TENOR.	*	*	*I"ALT.	*	*	*I"CANTVS.	*	*
*I'B	*	*	*I'T	*	*	*I'A	*	*	*I'S	*	*
*mI"Basso	*	*	*mI"Tenore	*	*	*mI"Alto	*	*	*mI"Soprano	*	*
*clefF4	*	*	*clefC4	*	*	*clefC3	*	*	*clefC1	*	*
*	*	*	*mclefGv2	*	*	*mclefG2	*	*	*mclefG2	*	*
*k[b-]	*	*	*k[b-]	*	*	*k[b-]	*	*	*k[b-]	*	*
*F:	*	*	*F:	*	*	*F:	*	*	*F:	*	*
*M2/1	*	*	*M2/1	*	*	*M2/1	*	*	*M2/1	*	*
*met(C|)	*	*	*met(C|)	*	*	*met(C|)	*	*	*met(C|)	*	*
*mmet(c|)	*	*	*mmet(c|)	*	*	*mmet(c|)	*	*	*mmet(c|)	*	*
=1-	=1-	=1-	=1-	=1-	=1-	=1-	=1-	=1-	=1-	=1-	=1-
*xywh-#6:557,1660,2102,554	*	*	*xywh-#5:2943,284,2004,823	*	*	*xywh-#6:533,359,2142,651	*	*	*xywh-#5:446,372,2022,794	*	*
!	!	!	!LO:TX:t=P:problem:brak oznaczenia metrycznego	!	!	!	!	!	!	!	!
1F	.	We-	1F	We-	We-	1c	.	We-	1f	We-	We-
1F	.	-se-	1F	-ſe-	-se-	1c	.	-se-	2f/	-ſe-	-se-
.	.	.	.	.	.	.	.	.	1cc\	-le	-le
=2-	=2-	=2-	=2-	=2-	=2-	=2-	=2-	=2-	=2-	=2-	=2-
1F	.	-le	1A	-le	-le	1f	.	-le	.	.	.
.	.	.	.	.	.	.	.	.	4b-\	ſpie-	.
.	.	.	.	.	.	.	.	.	4a/	.	.
1G	.	śpie-	1B-	ſpie-	śpie-	1d	.	śpie-	2g/	-way-	.
.	.	.	.	.	.	.	.	.	2g/	-my/	śpie-
=3-	=3-	=3-	=3-	=3-	=3-	=3-	=3-	=3-	=3-	=3-	=3-
0C	.	-waj-	0c	-way-	-waj-	0e	.	-waj-	0g	Bo-	-waj-
=4-	=4-	=4-	=4-	=4-	=4-	=4-	=4-	=4-	=4-	=4-	=4-
0C	.	-my	0c	-my/	-my	0e	.	-my	0g	-gá	-my
=5-	=5-	=5-	=5-	=5-	=5-	=5-	=5-	=5-	=5-	=5-	=5-
1G	.	Bo-	1d	Bo-	Bo-	1g	.	Bo-	1b-	oy-	Bo-
!	!	!	!	!	!	!	!	!	!LO:SIC:v:t=custos a	!	!
1C	.	-ga	1e	-ga.	-ga	1g	.	-ga	1cc	-cá	-ga
=6-	=6-	=6-	=6-	=6-	=6-	=6-	=6-	=6-	=6-	=6-	=6-
*	*	*	*	*	*	*	*	*	*xywh-#5:446,1138,2011,525	*	*
!	!	!	!	!	!	!	!	!	!LO:LB:g=original	!	!
2.D/	.	Oj-	1f	.	Oj-	4d/	.	Oj-	1a	chwal-	Oj-
.	.	.	.	.	.	4e\	.	.	.	.	.
.	.	.	.	.	.	4f\	.	.	.	.	.
4E/	.	.	.	.	.	4g\	.	.	.	.	.
2F\	.	-ca	1c	.	-ca	2a\	.	.	2a\	-my/	-ca
2E\	.	.	.	.	.	2g\	.	.	1cc\	.	chwal-
=7-	=7-	=7-	=7-	=7-	=7-	=7-	=7-	=7-	=7-	=7-	=7-
*lig	*	*	*lig	*	*	*	*	*	*	*	*
1F	.	chwal-	1A	.	chwal-	1f	.	-ca	.	.	.
.	.	.	.	.	.	.	.	.	4b-\	Jenż	.
.	.	.	.	.	.	.	.	.	4a\	.	.
!	!	!	!LO:SIC:v:t=custos c	!	!	!	!	!	!	!	!
1G	.	.	1B-	.	.	1d	.	chwal-	1g	tu	.
*Xlig	*	*	*Xlig	*	*	*	*	*	*	*	*
=8-	=8-	=8-	=8-	=8-	=8-	=8-	=8-	=8-	=8-	=8-	=8-
*	*	*	*xywh-#5:2938,1078,1980,452	*	*	*	*	*	*	*	*
!	!	!	!LO:LB:g=original	!	!	!	!	!	!	!	!
0C\	.	-my	0c	.	-my	0e	.	-my	0g	ſy-	-my
=9-	=9-	=9-	=9-	=9-	=9-	=9-	=9-	=9-	=9-	=9-	=9-
!	!	!	!	!	!	!LO:SIC:v:t=custos e	!	!	!	!	!
1G	.	Jenż	1B-	.	Jenż	1d	.	Jenż	1g	-ná	Jenż
*	*	*	*	*	*	*xywh-#6:527,959,2125,399	*	*	*	*	*
!LO:SIC:v:t=custos F	!	!	!	!	!	!LO:LB:g=original	!	!	!	!	!
1C	.	tu	1G	.	tu	1e	.	tu	1e	ſwe-	tu
=10-	=10-	=10-	=10-	=10-	=10-	=10-	=10-	=10-	=10-	=10-	=10-
!LO:LB:g=original	!	!	!	!	!	!LO:SIC:v:s=1c	!	!	!	!	!
*xywh-#6:557,2197,2097,468	*	*	*	*	*	*	*	*	*	*	*
1F	.	Sy-	1A	.	Sy-	1e	.	Sy-	1f	.	Sy-
!	!	!	!	!	!	!	!	!	!LO:SIC:v:t=custos g	!	!
2.G\	.	-na	1B-	.	-na	4G/	.	.	2d/	-go/	.
.	.	.	.	.	.	4A/	.	.	.	.	.
*	*	*	*	*	*	*	*	*	*xywh-#5:446,1624,2017,462	*	*
!	!	!	!	!	!	!	!	!	!LO:LB:g=original	!	!
.	.	.	.	.	.	4B-/	.	.	2.g/	ied-	-na
4F\	.	.	.	.	.	4c/	.	.	.	.	.
=11-	=11-	=11-	=11-	=11-	=11-	=11-	=11-	=11-	=11-	=11-	=11-
*	*	*	*lig	*	*	*	*	*	*	*	*
4D\	.	.	1A	.	swe-	2d\	.	-na	.	.	.
4E\	.	.	.	.	.	.	.	.	4f/	.	.
2F\	.	.	.	.	.	1.c	.	swe-	1f	-no-	swe-
1C	.	swe-	1G	.	.	.	.	.	.	.	.
.	.	.	.	.	.	.	.	.	2e/	-ro-	.
*	*	*	*Xlig	*	*	*	*	*	*	*	*
=12-	=12-	=12-	=12-	=12-	=12-	=12-	=12-	=12-	=12-	=12-	=12-
0FF	.	-go	0F	.	-go	0A	.	-go	0f	-dzo-	-go
=13-	=13-	=13-	=13-	=13-	=13-	=13-	=13-	=13-	=13-	=13-	=13-
1C	.	Je-	1E	.	Je-	1c	.	Je-	1g	.	Je-
1FF	.	.	1F	.	.	2c/	.	.	1a	-ne-	.
.	.	.	.	.	.	1f\	.	-dno-	.	.	.
=14-	=14-	=14-	=14-	=14-	=14-	=14-	=14-	=14-	=14-	=14-	=14-
1C	.	-dno-	1G	.	-dno-	.	.	.	1g	-go/	-dno-
.	.	.	.	.	.	2e\	.	.	.	.	.
!	!	!	!LO:SIC:v:t=custos G	!	!	!	!	!	!	!	!
2FF/	.	.	1A	.	-ro-	2.c/	.	-ro-	1f	.	-ro-
1F\	.	-ro-	.	.	.	.	.	.	.	.	.
.	.	.	.	.	.	4B-/	.	.	.	.	.
=15-	=15-	=15-	=15-	=15-	=15-	=15-	=15-	=15-	=15-	=15-	=15-
*	*	*	*lig	*	*	*	*	*	*lig	*	*
*	*	*	*xywh-#5:2919,1502,2019,504	*	*	*	*	*	*	*	*
!	!	!	!LO:LB:g=original	!	!	!	!	!	!	!	!
.	.	.	1G	.	-dzo-	4c/	.	.	1g	.	-dzo-
.	.	.	.	.	.	4d/	.	.	.	.	.
2E\	.	.	.	.	.	2e\	.	.	.	.	.
!	!	!	!	!	!	!LO:TX:t=P:problem:błędny kustosz	!	!	!	!	!
!	!	!	!	!	!	!LO:SIC:v:t=custos B-	!	!	!	!	!
1D	.	-dzo-	1F	.	.	2f\	.	.	1a	.	.
*	*	*	*	*	*	*xywh-#6:516,1330,2137,371	*	*	*	*	*
!	!	!	!	!	!	!LO:LB:g=original	!	!	!	!	!
.	.	.	.	.	.	2.d/	.	-dzo-	.	.	.
*	*	*	*Xlig	*	*	*	*	*	*Xlig	*	*
=16-	=16-	=16-	=16-	=16-	=16-	=16-	=16-	=16-	=16-	=16-	=16-
*	*	*	*lig	*	*	*	*	*	*	*	*
!	!	!	!	!	!	!	!	!	!LO:TX:t=P:problem:błędny kustosz	!	!
!	!	!	!	!	!	!	!	!	!LO:SIC:v:t=custos g	!	!
2E\	.	.	1E	.	-ne-	.	.	.	2g/	.	-ne-
.	.	.	.	.	.	4c/	.	.	.	.	.
*	*	*	*	*	*	*	*	*	*xywh-#5:530,2036,1857,571	*	*
!	!	!	!	!	!	!	!	!	!LO:LB:g=original	!	!
1G	.	-ne-	.	.	.	1c	.	-ne-	2e/	dał	.
.	.	.	1D	.	.	.	.	.	1f	.	.
2F\	.	.	.	.	.	2B-/	.	.	.	.	.
*	*	*	*Xlig	*	*	*	*	*	*	*	*
=17-	=17-	=17-	=17-	=17-	=17-	=17-	=17-	=17-	=17-	=17-	=17-
!LO:SIC:v:t=custos F	!	!	!	!	!	!	!	!	!	!	!
0G	.	-go	0C	.	-go	0c	.	-go	0e	dla	-go
=18-	=18-	=18-	=18-	=18-	=18-	=18-	=18-	=18-	=18-	=18-	=18-
!LO:LB:g=original	!	!	!	!	!	!	!	!	!	!	!
*xywh-#6:551,2637,2091,559	*	*	*	*	*	*	*	*	*	*	*
1F	.	dał	1F	.	dał	2r	.	.	1a	wy-	dał
.	.	.	.	.	.	1f	.	dał	.	.	.
1C	.	dla	1G	.	dla	.	.	.	1g	-ba-	dla
.	.	.	.	.	.	2e\	.	dla	.	.	.
=19-	=19-	=19-	=19-	=19-	=19-	=19-	=19-	=19-	=19-	=19-	=19-
*	*	*	*lig	*	*	*	*	*	*	*	*
2.F\	.	wy-	1A	.	wy-	1f	.	wy-	4f/	-wie-	wy-
.	.	.	.	.	.	.	.	.	4g/	.	.
.	.	.	.	.	.	.	.	.	4a/	-nia,	.
4G\	.	.	.	.	.	.	.	.	4b-\	.	.
4A\	.	.	1F	.	.	1f	.	-ba-	2.cc\	ple-	.
4B-\	.	.	.	.	.	.	.	.	.	.	.
2.c\	.	-ba-	.	.	.	.	.	.	.	.	.
.	.	.	.	.	.	.	.	.	8b-\	.	.
.	.	.	.	.	.	.	.	.	8a\	.	.
*	*	*	*Xlig	*	*	*	*	*	*	*	*
=20-	=20-	=20-	=20-	=20-	=20-	=20-	=20-	=20-	=20-	=20-	=20-
!	!	!	!	!	!	!	!	!	!LO:SIC:v:t=custos cc	!	!
.	.	.	1c	.	-ba-	2.e\	.	-wie-	2g/	-mie-	-ba-
4B-\	.	.	.	.	.	.	.	.	.	.	.
*	*	*	*	*	*	*	*	*	*xywh-#5:507,2568,1908,559	*	*
!	!	!	!	!	!	!	!	!	!LO:LB:g=original	!	!
2A\	.	.	.	.	.	.	.	.	1cc	.	-wie-
.	.	.	.	.	.	4f\	.	.	.	.	.
1G	.	-wie-	1d	.	-wie-	1g	.	.	.	.	.
.	.	.	.	.	.	.	.	.	2b-\	-nia	.
=21-	=21-	=21-	=21-	=21-	=21-	=21-	=21-	=21-	=21-	=21-	=21-
0C	.	-nia	0c	.	-nia	0e	.	-nia	0cc	.	-nia
=22-	=22-	=22-	=22-	=22-	=22-	=22-	=22-	=22-	=22-	=22-	=22-
!	!	!	!LO:SIC:v:t=custos G	!	!	!	!	!	!	!	!
1F	.	ludz-	1F	.	ludz-	1f	.	ludz-	1cc	ludz-	ludz-
*	*	*	*xywh-#5:2921,1991,2014,871	*	*	*	*	*	*	*	*
!	!	!	!LO:LB:g=original	!	!	!	!	!	!	!	!
1C	.	-kie-	1G	.	-kie-	1e	.	-kie-	1cc	-kie-	-kie-
=23-	=23-	=23-	=23-	=23-	=23-	=23-	=23-	=23-	=23-	=23-	=23-
1F	.	-go	1A	.	-go	1c	.	-go	1a	.	-go
1BB-	.	ple-	1B-	.	ple-	1d	.	ple-	2f/	.	[ple-
.	.	.	.	.	.	.	.	.	2.g/	-go.	.
=24-	=24-	=24-	=24-	=24-	=24-	=24-	=24-	=24-	=24-	=24-	=24-
*	*	*	*lig	*	*	*	*	*	*	*	*
0C	.	-mie-	1A	.	-mie-	0c	.	-mie-	.	.	.
.	.	.	.	.	.	.	.	.	4f/	.	.
.	.	.	.	.	.	.	.	.	1f	.	-mie-
.	.	.	1G	.	.	.	.	.	.	.	.
.	.	.	.	.	.	.	.	.	2e/	.	.
*	*	*	*Xlig	*	*	*	*	*	*	*	*
=25-	=25-	=25-	=25-	=25-	=25-	=25-	=25-	=25-	=25-	=25-	=25-
!	!	!	!	!	!	!LO:TX:t=P:problem:poprawka wysokości	!	!	!	!	!
0FFl	.	-nia.	0Fl	.	-nia.	0cl	.	-nia.	0fl\	.	-nia].
==-	==-	==-	==-	==-	==-	==-	==-	==-	==-	==-	==-
*-	*-	*-	*-	*-	*-	*-	*-	*-	*-	*-	*-
!!!system-decoration: [(*)]
!!LO:MO:ori
!!!RDF**kern: l = terminal long
!!LO:MO:end
!!!filter-modern: sic -sq | shed -e "s/TX(.*):t=P:/tx$1:t=P:/LG" | shed -k -e "s/LO:N:vis/LO:n:vis:/L" | shed -e "s/^(\d+[\/\\]right)/$1yy/I;s/^(\d+[\/\\]left)/$1yy/I" | shed -e "s/-//B" | shed -e "s/^custos:/Xcustos:/I" | shed -k -e "s/LO:N:acc/LO:n:acc:/L" | autostem -r | tie -s | humtr -p | modori -m
!!!ENC: Mateusz Solarz
!!!END: 2022-04-25
!!!ENC: Krzysztof Stępień
!!!END: 2022-05-09
!!!ENC-modern: Andrzej Borzym
!!!END-modern: 2022-07-23
!!!ENC-iiif: Emilia Ziętek
!!!END-iiif: 2022-09-02
!!!YEC: Copyright 2022 Narodowy Instytut Fryderyka Chopina (https://polishscores.org)
!!!YEM: License CC-BY-4.0 (https://creativecommons.org/licenses/by/4.0)
